images/hub.svg

<svg height="250" viewBox="0 0 250 250" width="250" xmlns="http://www.w3.org/2000/svg"><path d="m185.714844 141.5625c10.996094-1.617188 19.410156-10.910156 19.410156-22.140625 0-12.332031-10.179688-22.332031-22.734375-22.332031-11.429687 0-20.855469 8.265625-22.535156 19.066406-6.84375 0-61.570313 0-68.414063 0-1.445312-9.6875-9.339844-17.449219-19.320312-18.753906 0-4.5 0-40.492188 0-44.988282 11.105468-1.539062 19.613281-10.800781 19.613281-22.136718 0-12.332032-10.183594-22.339844-22.738281-22.339844-12.554688 0-22.734375 10.007812-22.734375 22.339844 0 11.113281 8.296875 20.402344 19.089843 22.023437v45.070313c-10.90625 1.617187-19.207031 10.914062-19.207031 22.136718 0 11.230469 8.300781 20.40625 19.207031 22.140626v45.183593c-10.90625 1.621094-19.328124 10.910157-19.328124 22.140625 0 12.332032 10.1875 22.332032 22.742187 22.332032s22.734375-10 22.734375-22.332032c0-11.230468-8.414062-20.492187-19.410156-22.140625 0-4.515625 0-40.667969 0-45.183593 9.980468-1.425782 17.761718-9.066407 19.320312-18.757813h68.414063c1.449219 9.691406 9.230469 17.332031 19.09375 18.757813v45.070312c-10.988281 1.617188-19.410157 10.914062-19.410157 22.136719 0 12.332031 10.1875 22.339843 22.738282 22.339843 12.554687 0 22.734375-10.007812 22.734375-22.339843.058593-11.195313-8.359375-20.488281-19.265625-22.105469 0-9.039062 0-40.671875 0-45.1875zm0 0" fill="#ff6c49"/></svg>

<?xml version="1.0" encoding="UTF-8"?>
<svg xmlns="http://www.w3.org/2000/svg" xmlns:xlink="http://www.w3.org/1999/xlink" width="250px" height="250px" viewBox="0 0 250 250" version="1.1">
<g id="surface1">
<path style=" stroke:none;fill-rule:nonzero;fill:rgb(100%,42.352942%,28.627452%);fill-opacity:1;" d="M 185.714844 141.5625 C 196.710938 139.945312 205.125 130.652344 205.125 119.421875 C 205.125 107.089844 194.945312 97.089844 182.390625 97.089844 C 170.960938 97.089844 161.535156 105.355469 159.855469 116.15625 C 153.011719 116.15625 98.285156 116.15625 91.441406 116.15625 C 89.996094 106.46875 82.101562 98.707031 72.121094 97.402344 C 72.121094 92.902344 72.121094 56.910156 72.121094 52.414062 C 83.226562 50.875 91.734375 41.613281 91.734375 30.277344 C 91.734375 17.945312 81.550781 7.9375 68.996094 7.9375 C 56.441406 7.9375 46.261719 17.945312 46.261719 30.277344 C 46.261719 41.390625 54.558594 50.679688 65.351562 52.300781 C 65.351562 56.804688 65.351562 92.863281 65.351562 97.371094 C 54.445312 98.988281 46.144531 108.285156 46.144531 119.507812 C 46.144531 130.738281 54.445312 139.914062 65.351562 141.648438 C 65.351562 146.164062 65.351562 182.316406 65.351562 186.832031 C 54.445312 188.453125 46.023438 197.742188 46.023438 208.972656 C 46.023438 221.304688 56.210938 231.304688 68.765625 231.304688 C 81.320312 231.304688 91.5 221.304688 91.5 208.972656 C 91.5 197.742188 83.085938 188.480469 72.089844 186.832031 C 72.089844 182.316406 72.089844 146.164062 72.089844 141.648438 C 82.070312 140.222656 89.851562 132.582031 91.410156 122.890625 C 98.253906 122.890625 152.988281 122.890625 159.824219 122.890625 C 161.273438 132.582031 169.054688 140.222656 178.917969 141.648438 C 178.917969 146.152344 178.917969 182.210938 178.917969 186.71875 C 167.929688 188.335938 159.507812 197.632812 159.507812 208.855469 C 159.507812 221.1875 169.695312 231.195312 182.246094 231.195312 C 194.800781 231.195312 204.980469 221.1875 204.980469 208.855469 C 205.039062 197.660156 196.621094 188.367188 185.714844 186.75 C 185.714844 177.710938 185.714844 146.078125 185.714844 141.5625 Z M 185.714844 141.5625 "/>
</g>
</svg>
